src/icons/aws-audit-manager.svg

<?xml version="1.0" encoding="UTF-8"?>
<svg xmlns="http://www.w3.org/2000/svg" xmlns:xlink="http://www.w3.org/1999/xlink" width="32" height="32" viewBox="0 0 32 32" version="1.1">
<defs>
<linearGradient id="linear0" gradientUnits="userSpaceOnUse" x1="0" y1="1" x2="1" y2="0" gradientTransform="matrix(32,0,0,32,0,0)">
<stop offset="0" style="stop-color:rgb(74.117649%,3.137255%,8.627451%);stop-opacity:1;"/>
<stop offset="1" style="stop-color:rgb(100%,32.156864%,32.156864%);stop-opacity:1;"/>
</linearGradient>
</defs>
<g id="surface1">
<rect x="0" y="0" width="32" height="32" style="fill:url(#linear0);stroke:none;"/>
<path style=" stroke:none;fill-rule:evenodd;fill:rgb(100%,100%,100%);fill-opacity:1;" d="M 24.851562 20.648438 L 24.148438 21.351562 L 25.292969 22.5 L 21.5 22.5 L 21.5 23.5 L 25.292969 23.5 L 24.148438 24.648438 L 24.851562 25.351562 L 26.851562 23.351562 C 27.050781 23.15625 27.050781 22.84375 26.851562 22.648438 Z M 14.5 23.5 L 18.292969 23.5 L 17.148438 24.648438 L 17.851562 25.351562 L 19.851562 23.351562 C 20.050781 23.15625 20.050781 22.84375 19.851562 22.648438 L 17.851562 20.648438 L 17.148438 21.351562 L 18.292969 22.5 L 14.5 22.5 Z M 10.851562 25.351562 L 12.851562 23.351562 C 13.050781 23.15625 13.050781 22.84375 12.851562 22.648438 L 10.851562 20.648438 L 10.148438 21.351562 L 11.292969 22.5 L 7.5 22.5 L 7.5 23.5 L 11.292969 23.5 L 10.148438 24.648438 Z M 7.5 18.5 L 14.5 18.5 L 14.5 17.5 L 7.5 17.5 Z M 7.5 14 L 14.5 14 L 14.5 13 L 7.5 13 Z M 17 14 L 19 14 L 19 13 L 17 13 Z M 19.5 12 C 19.777344 12 20 12.222656 20 12.5 L 20 14.5 C 20 14.777344 19.777344 15 19.5 15 L 16.5 15 C 16.222656 15 16 14.777344 16 14.5 L 16 12.5 C 16 12.222656 16.222656 12 16.5 12 Z M 17 18.5 L 26 18.5 L 26 17.5 L 17 17.5 Z M 27 17 L 27 19 C 27 19.277344 26.777344 19.5 26.5 19.5 L 16.5 19.5 C 16.222656 19.5 16 19.277344 16 19 L 16 17 C 16 16.722656 16.222656 16.5 16.5 16.5 L 26.5 16.5 C 26.777344 16.5 27 16.722656 27 17 Z M 19 8.5 L 20.792969 8.5 L 19 6.707031 Z M 21.5 25 L 22.5 25 L 22.5 26.5 C 22.5 26.777344 22.277344 27 22 27 L 5.5 27 C 5.222656 27 5 26.777344 5 26.5 L 5 5.5 C 5 5.222656 5.222656 5 5.5 5 L 18.5 5 C 18.632812 5 18.757812 5.054688 18.851562 5.148438 L 22.351562 8.648438 C 22.449219 8.742188 22.5 8.867188 22.5 9 L 22.5 15.5 L 21.5 15.5 L 21.5 9.5 L 18.5 9.5 C 18.222656 9.5 18 9.277344 18 9 L 18 6 L 6 6 L 6 26 L 21.5 26 Z M 11 11.5 C 10.871094 11.5 10.742188 11.449219 10.648438 11.351562 L 9.148438 9.851562 L 9.851562 9.148438 L 11 10.292969 L 13.648438 7.648438 L 14.351562 8.351562 L 11.351562 11.351562 C 11.257812 11.449219 11.128906 11.5 11 11.5 Z M 11 11.5 "/>
</g>
</svg>

<svg role="img" viewBox="0 0 32 32" xmlns="http://www.w3.org/2000/svg" xmlns:xlink="http://www.w3.org/1999/xlink"><defs><linearGradient gradientTransform="scale(32)" gradientUnits="userSpaceOnUse" id="a" x1="0" x2="1" y1="1" y2="0"><stop offset="0" style="stop-color:rgb(74.117649%,3.137255%,8.627451%);stop-opacity:1"/><stop offset="1" style="stop-color:rgb(100%,32.156864%,32.156864%);stop-opacity:1"/></linearGradient></defs><path d="M0 0h32v32H0z" style="fill:url(#a);stroke:none"/><path d="m24.852 20.648-.704.704 1.145 1.148H21.5v1h3.793l-1.145 1.148.704.704 2-2a.49.49 0 0 0 0-.704ZM14.5 23.5h3.793l-1.145 1.148.704.704 2-2a.49.49 0 0 0 0-.704l-2-2-.704.704 1.145 1.148H14.5Zm-3.648 1.852 2-2a.49.49 0 0 0 0-.704l-2-2-.704.704 1.145 1.148H7.5v1h3.793l-1.145 1.148ZM7.5 18.5h7v-1h-7Zm0-4.5h7v-1h-7Zm9.5 0h2v-1h-2Zm2.5-2c.277 0 .5.223.5.5v2c0 .277-.223.5-.5.5h-3a.498.498 0 0 1-.5-.5v-2c0-.277.223-.5.5-.5ZM17 18.5h9v-1h-9ZM27 17v2c0 .277-.223.5-.5.5h-10a.498.498 0 0 1-.5-.5v-2c0-.277.223-.5.5-.5h10c.277 0 .5.223.5.5m-8-8.5h1.793L19 6.707ZM21.5 25h1v1.5c0 .277-.223.5-.5.5H5.5a.498.498 0 0 1-.5-.5v-21c0-.277.223-.5.5-.5h13a.5.5 0 0 1 .352.148l3.5 3.5A.481.481 0 0 1 22.5 9v6.5h-1v-6h-3A.498.498 0 0 1 18 9V6H6v20h15.5ZM11 11.5a.488.488 0 0 1-.352-.148l-1.5-1.5.704-.704L11 10.293l2.648-2.645.704.704-3 3A.488.488 0 0 1 11 11.5m0 0" style="stroke:none;fill-rule:evenodd;fill:rgb(100%,100%,100%);fill-opacity:1"/></svg>
